icon/fa/x-ray.svg

<svg xmlns="http://www.w3.org/2000/svg" viewBox="0 0 512 512"><!--! Font Awesome Free 6.1.2 by @fontawesome - https://fontawesome.com License - https://fontawesome.com/license/free (Icons: CC BY 4.0, Fonts: SIL OFL 1.1, Code: MIT License) Copyright 2022 Fonticons, Inc.--><path d="M208 352c-8.8 0-16 7.2-16 16s7.2 16 16 16 16-7.2 16-16-7.2-16-16-16zm96 32c8.836 0 16-7.164 16-16 0-8.838-7.164-16-16-16s-16 7.2-16 16 7.2 16 16 16zM496 96c8.8 0 16-7.16 16-16V48c0-8.84-7.2-16-16-16H16C7.164 32 0 39.16 0 48v32c0 8.84 7.164 16 16 16h16v320H16c-8.836 0-16 7.2-16 16v32c0 8.8 7.164 16 16 16h480c8.836 0 16-7.164 16-16v-32c0-8.836-7.164-16-16-16h-16V96h16zm-80 120c0 4.4-3.6 8-8 8H272v32h104c4.4 0 8 3.6 8 8v16c0 4.4-3.6 8-8 8H272v32h69.33c25.56 0 40.8 28.48 26.62 49.75l-21.33 32C340.7 410.7 330.7 416 319.1 416H192c-10.7 0-20.69-5.347-26.62-14.25l-21.33-32C129.9 348.5 145.1 320 170.7 320H240v-32H136c-4.4 0-8-3.6-8-8v-16c0-4.4 3.6-8 8-8h104v-32H104c-4.4 0-8-3.6-8-8v-16c0-4.4 3.6-8 8-8h136v-32H136c-4.4 0-8-3.6-8-8v-16c0-4.4 3.6-8 8-8h104v-24c0-4.4 3.6-8 8-8h16c4.4 0 8 3.6 8 8v24h104c4.4 0 8 3.6 8 8v16c0 4.4-3.6 8-8 8H272v32h136c4.4 0 8 3.6 8 8v16z"/></svg>

<svg xmlns="http://www.w3.org/2000/svg" viewBox="0 0 512 512" height="1em" width="1em">
<!--! Font Awesome Free 6.1.2 by @fontawesome - https://fontawesome.com License - https://fontawesome.com/license/free (Icons: CC BY 4.0, Fonts: SIL OFL 1.1, Code: MIT License) Copyright 2022 Fonticons, Inc.-->
  <path d="M208 352C199.2 352 192 359.2 192 368C192 376.8 199.2 384 208 384S224 376.8 224 368C224 359.2 216.8 352 208 352zM304 384c8.836 0 16-7.164 16-16c0-8.838-7.164-16-16-16S288 359.2 288 368C288 376.8 295.2 384 304 384zM496 96C504.8 96 512 88.84 512 80v-32C512 39.16 504.8 32 496 32h-480C7.164 32 0 39.16 0 48v32C0 88.84 7.164 96 16 96H32v320H16C7.164 416 0 423.2 0 432v32C0 472.8 7.164 480 16 480h480c8.836 0 16-7.164 16-16v-32c0-8.836-7.164-16-16-16H480V96H496zM416 216C416 220.4 412.4 224 408 224H272v32h104C380.4 256 384 259.6 384 264v16C384 284.4 380.4 288 376 288H272v32h69.33c25.56 0 40.8 28.48 26.62 49.75l-21.33 32C340.7 410.7 330.7 416 319.1 416H192c-10.7 0-20.69-5.347-26.62-14.25l-21.33-32C129.9 348.5 145.1 320 170.7 320H240V288H136C131.6 288 128 284.4 128 280v-16C128 259.6 131.6 256 136 256H240V224H104C99.6 224 96 220.4 96 216v-16C96 195.6 99.6 192 104 192H240V160H136C131.6 160 128 156.4 128 152v-16C128 131.6 131.6 128 136 128H240V104C240 99.6 243.6 96 248 96h16c4.4 0 8 3.6 8 8V128h104C380.4 128 384 131.6 384 136v16C384 156.4 380.4 160 376 160H272v32h136C412.4 192 416 195.6 416 200V216z"/>
</svg>
